world_stage/static/flags/rect/wsm.svg

<svg height="1440" viewBox="0 0 2160 1440" width="2160" xmlns="http://www.w3.org/2000/svg"><path d="m0 0h1620v1080h-1620z" fill="#ce1126" transform="matrix(1.3333333 0 0 -1.3333333 0 1440)"/><path d="m0 540h810v540h-810z" fill="#002b7f" transform="matrix(1.3333333 0 0 -1.3333333 0 1440)"/><g fill="#fff"><path d="m0 0-17.705 54.492-17.705-54.492h-57.295l46.352-33.677-17.704-54.491 46.352 33.677 46.352-33.677-17.705 54.491 46.353 33.677z" transform="matrix(1.3333333 0 0 -1.3333333 564.94013 572.44267)"/><path d="m0 0-14.165 42.973-14.164-42.973h-45.836l37.082-26.557-14.164-42.97 37.082 26.557 37.082-26.557-14.164 42.97 37.082 26.557z" transform="matrix(1.3333333 0 0 -1.3333333 340.21947 267.29747)"/><path d="m0 0 34.764 24.787h-42.971l-13.279 40.105-13.279-40.105h-42.971l34.764-24.787-13.28-40.108 34.766 24.789 34.766-24.789z" transform="matrix(1.3333333 0 0 -1.3333333 794.98107 266.5228)"/><path d="m0 0-14.164-42.97 37.082 26.556 37.082-26.556-14.164 42.97 37.082 26.557h-45.835l-14.165 42.973-14.164-42.973h-45.836z" transform="matrix(1.3333333 0 0 -1.3333333 510.77533 122.7064)"/><path d="m0 0-8.852 27.242-8.851-27.242h-28.649l23.177-16.84-8.853-27.246 23.176 16.839 23.176-16.839-8.852 27.246 23.176 16.84z" transform="matrix(1.3333333 0 0 -1.3333333 663.13547 401.2188)"/></g></svg>

<?xml version="1.0" encoding="UTF-8" standalone="no"?>
<!-- Created with Inkscape (http://www.inkscape.org/) -->

<svg
   version="1.1"
   id="svg1"
   width="2160"
   height="1440"
   viewBox="0 0 2160 1440"
   sodipodi:docname="ws.ai"
   xmlns:inkscape="http://www.inkscape.org/namespaces/inkscape"
   xmlns:sodipodi="http://sodipodi.sourceforge.net/DTD/sodipodi-0.dtd"
   xmlns="http://www.w3.org/2000/svg"
   xmlns:svg="http://www.w3.org/2000/svg">
  <defs
     id="defs1" />
  <sodipodi:namedview
     id="namedview1"
     pagecolor="#ffffff"
     bordercolor="#000000"
     borderopacity="0.25"
     inkscape:showpageshadow="2"
     inkscape:pageopacity="0.0"
     inkscape:pagecheckerboard="0"
     inkscape:deskcolor="#d1d1d1">
    <inkscape:page
       x="0"
       y="0"
       inkscape:label="1"
       id="page1"
       width="2160"
       height="1440"
       margin="0"
       bleed="0" />
  </sodipodi:namedview>
  <g
     id="layer-MC0"
     inkscape:groupmode="layer"
     inkscape:label="Layer 1">
    <path
       id="path1"
       d="M 0,0 H 1620 V 1080 H 0 Z"
       style="fill:#ce1126;fill-opacity:1;fill-rule:nonzero;stroke:none"
       transform="matrix(1.3333333,0,0,-1.3333333,0,1440)" />
    <path
       id="path2"
       d="m 0,540 h 810 v 540 H 0 Z"
       style="fill:#002b7f;fill-opacity:1;fill-rule:nonzero;stroke:none"
       transform="matrix(1.3333333,0,0,-1.3333333,0,1440)" />
    <path
       id="path3"
       d="M 0,0 -17.705,54.492 -35.41,0 h -57.295 l 46.352,-33.677 -17.704,-54.491 46.352,33.677 L 28.647,-88.168 10.942,-33.677 57.295,0 Z"
       style="fill:#ffffff;fill-opacity:1;fill-rule:nonzero;stroke:none"
       transform="matrix(1.3333333,0,0,-1.3333333,564.94013,572.44267)" />
    <path
       id="path4"
       d="M 0,0 -14.165,42.973 -28.329,0 h -45.836 l 37.082,-26.557 -14.164,-42.97 37.082,26.557 L 22.917,-69.527 8.753,-26.557 45.835,0 Z"
       style="fill:#ffffff;fill-opacity:1;fill-rule:nonzero;stroke:none"
       transform="matrix(1.3333333,0,0,-1.3333333,340.21947,267.29747)" />
    <path
       id="path5"
       d="M 0,0 34.764,24.787 H -8.207 L -21.486,64.892 -34.765,24.787 H -77.736 L -42.972,0 l -13.28,-40.108 34.766,24.789 34.766,-24.789 z"
       style="fill:#ffffff;fill-opacity:1;fill-rule:nonzero;stroke:none"
       transform="matrix(1.3333333,0,0,-1.3333333,794.98107,266.5228)" />
    <path
       id="path6"
       d="M 0,0 -14.164,-42.97 22.918,-16.414 60,-42.97 45.836,0 82.918,26.557 H 37.083 L 22.918,69.53 8.754,26.557 h -45.836 z"
       style="fill:#ffffff;fill-opacity:1;fill-rule:nonzero;stroke:none"
       transform="matrix(1.3333333,0,0,-1.3333333,510.77533,122.7064)" />
    <path
       id="path7"
       d="M 0,0 -8.852,27.242 -17.703,0 h -28.649 l 23.177,-16.84 -8.853,-27.246 23.176,16.839 L 14.324,-44.086 5.472,-16.84 28.648,0 Z"
       style="fill:#ffffff;fill-opacity:1;fill-rule:nonzero;stroke:none"
       transform="matrix(1.3333333,0,0,-1.3333333,663.13547,401.2188)" />
  </g>
</svg>
